X:1
T:Title
%%score { 1 | 2 }
L:1/8
Q:1/4=118
M:4/2
K:Bb
V:1 treble nm="Grand Piano"
V:2 bass 
V:1
 [DB]6 [DF]2 [CE]2 [B,D]2 [EG]3 [DF] | A12 z4 | c6 A2 G2 F2 G3 F | [DB]12 z4 | %4
w: Robert~Harkness * * * * *||||
 [Fd]6 [Fc]2 [FB]2 F2 =E F3 | G12 z4 | F6 G2 A2 d2 c3 F | [DB]12 z4 |] %8
w: ||||
V:2
 [B,,F,]6 [B,,B,]2 [B,,F,]2 [B,,F,]2 [B,,B,]3 [B,,B,] | [F,CE]12 z4 | %2
 [F,A,E]6 [F,CE]2 [F,B,E]2 [F,A,E]2 [F,B,E]3 [F,A,E] | [B,,B,]12 z4 | %4
 [B,,B,]6 [C,A,]2 [D,B,]2 [D,B,D]2 [D,B,_D] [D,B,=D]3 | [E,B,E]12 z4 | %6
 [F,A,E]6 [F,B,E]2 [F,CE]2 [F,B,F]2 [F,A,E]3 [F,A,E] | [B,,B,]12 z4 |] %8

